svg/aws-cloudwatch-alarm.svg

<?xml version="1.0" encoding="UTF-8"?>
<svg xmlns="http://www.w3.org/2000/svg" xmlns:xlink="http://www.w3.org/1999/xlink" width="32" height="32" viewBox="0 0 32 32">
<path fill-rule="nonzero" fill="rgb(90.588236%, 8.235294%, 48.235294%)" fill-opacity="1" d="M 2.839844 29.65625 L 9.203125 29.65625 C 9.394531 29.65625 9.578125 29.582031 9.714844 29.445312 C 9.851562 29.308594 9.929688 29.125 9.929688 28.933594 L 9.929688 14.933594 C 9.929688 14.742188 9.855469 14.554688 9.71875 14.417969 C 9.582031 14.28125 9.394531 14.207031 9.203125 14.207031 L 2.839844 14.207031 C 2.648438 14.207031 2.460938 14.28125 2.324219 14.417969 C 2.1875 14.554688 2.113281 14.742188 2.113281 14.933594 L 2.113281 28.933594 C 2.113281 29.332031 2.4375 29.65625 2.839844 29.65625 M 3.566406 28.210938 L 3.566406 15.65625 L 8.480469 15.65625 L 8.480469 28.210938 Z M 13.023438 29.65625 L 19.390625 29.65625 C 19.789062 29.652344 20.109375 29.332031 20.109375 28.933594 L 20.109375 18.113281 C 20.109375 17.714844 19.789062 17.394531 19.390625 17.390625 L 13.023438 17.390625 C 12.625 17.390625 12.300781 17.714844 12.300781 18.113281 L 12.300781 28.933594 C 12.300781 29.332031 12.625 29.65625 13.023438 29.65625 M 13.746094 28.210938 L 13.746094 18.839844 L 18.664062 18.839844 L 18.664062 28.210938 Z M 0.292969 32.207031 L 32.117188 32.207031 L 32.117188 30.757812 L 0.292969 30.757812 Z M 26.386719 10.5625 C 29.246094 10.558594 31.566406 8.242188 31.570312 5.382812 C 31.570312 2.527344 29.242188 0.207031 26.386719 0.207031 C 23.527344 0.210938 21.214844 2.527344 21.210938 5.382812 C 21.210938 8.242188 23.527344 10.5625 26.386719 10.5625 M 26.386719 1.652344 C 28.445312 1.65625 30.117188 3.324219 30.121094 5.382812 C 30.117188 7.445312 28.449219 9.113281 26.386719 9.117188 C 24.328125 9.113281 22.660156 7.441406 22.660156 5.382812 C 22.664062 3.324219 24.328125 1.65625 26.386719 1.652344 M 29.257812 11.402344 C 27.441406 12.261719 25.332031 12.261719 23.515625 11.402344 C 23.292969 11.296875 23.027344 11.308594 22.816406 11.441406 C 22.605469 11.574219 22.480469 11.804688 22.480469 12.054688 L 22.480469 28.933594 C 22.480469 29.332031 22.804688 29.65625 23.203125 29.65625 L 29.570312 29.65625 C 29.96875 29.65625 30.292969 29.332031 30.292969 28.933594 L 30.292969 12.054688 C 30.292969 11.804688 30.167969 11.574219 29.957031 11.441406 C 29.746094 11.308594 29.480469 11.292969 29.257812 11.402344 M 28.84375 28.210938 L 23.929688 28.210938 L 23.929688 13.121094 C 25.527344 13.625 27.246094 13.625 28.84375 13.121094 Z M 28.84375 28.210938 "/>
</svg>

<svg role="img" viewBox="0 0 32 32" xmlns="http://www.w3.org/2000/svg"><path d="M2.84 29.656h6.363a.725.725 0 0 0 .727-.723v-14a.73.73 0 0 0-.211-.515.73.73 0 0 0-.516-.211H2.84a.73.73 0 0 0-.516.211.73.73 0 0 0-.21.516v14c0 .398.324.722.726.722m.726-1.445V15.656H8.48v12.555Zm9.457 1.445h6.368a.723.723 0 0 0 .718-.722v-10.82a.723.723 0 0 0-.718-.723h-6.368a.724.724 0 0 0-.722.722v10.82c0 .399.324.723.722.723m.723-1.445V18.84h4.918v9.37ZM.293 32.207h31.824v-1.45H.293Zm26.094-21.644a5.19 5.19 0 0 0 5.183-5.18c0-2.856-2.328-5.176-5.183-5.176a5.178 5.178 0 0 0 0 10.355m0-8.91a3.74 3.74 0 0 1 3.734 3.73 3.74 3.74 0 0 1-3.734 3.735 3.735 3.735 0 0 1-3.727-3.734 3.734 3.734 0 0 1 3.727-3.73m2.87 9.75a6.72 6.72 0 0 1-5.741 0 .72.72 0 0 0-1.035.652v16.879c0 .398.324.722.722.722h6.367a.724.724 0 0 0 .723-.722v-16.88a.72.72 0 0 0-1.035-.652m-.414 16.809H23.93V13.12a8.2 8.2 0 0 0 4.914 0Zm0 0" fill="rgb(90.588236%, 8.235294%, 48.235294%)"/></svg>
